X: 9
T:Taith i Surrey
T:A Trip to Surrey
T:Rachel Ty Cam
M:6/8
L:1/8
Q:130
S:Cadw Twmpath Collection
R:Jig
A:Wales
Z:brian_martin12345@yahoo.com
K:D
A|dAAF2E|DEDD2E|FGF FGA|GFEE2A|
dAAF2E|DEDD2E|FGA GFE|FDDD2:||
D|A^GAA2A|dcdd2d|dcd Bed|cAAA2d|
ABAF2E|DEDD2E|FGA GFE|FDDD2:||
